X:1
T:Miss Campbell's -- Reel
R:reel
B:Ryan's Mammoth Collection
N:140
Z: Contributed by Ray Davies,  ray:davies99.freeserve.co.uk
M:C|
L:1/8
K:C
uA|\
G>EGA c2c>e | {e}d>cde dcAc | GEGA c>dea | g>cg>f eccA |
G>EGA c2c>e | {e}d>cde dcAc | GEGA c>dea | gcgf   ecc |]
ue|\
g>agc acgc | fdec Bdde | g>agc acgc | fedf ecce |
gagc acgc  | fdec Bdde | cGEG cdea  | gcgf ecc |]
